img/icons/mark.svg

<svg xmlns="http://www.w3.org/2000/svg" width="20" height="20" viewBox="0 0 24 24"><path d="M24 20.188l-8.315-8.209 8.2-8.282-3.697-3.697-8.212 8.318-8.31-8.203-3.666 3.666 8.321 8.24-8.206 8.313 3.666 3.666 8.237-8.318 8.285 8.203z"/></svg>

<svg xmlns="http://www.w3.org/2000/svg"  viewBox="0 0 24 24"><path d="M 24 20.188 L 15.685 11.979 L 23.885 3.697 L 20.188 -0 L 11.976 8.318 L 3.666 0.115 L -0 3.781 L 8.321 12.021 L 0.115 20.334 L 3.781 24 L 12.018 15.682 L 20.303 23.885 Z"/></svg>
